icon_installer/data/icons/scalable/actions/show-wheelchair-alt-symbolic.svg

<?xml version="1.0" encoding="UTF-8"?>
<svg height="16px" viewBox="0 0 16 16" width="16px" xmlns="http://www.w3.org/2000/svg">
    <path d="m 8 0.0625 c -1.105469 0 -2 0.894531 -2 2 s 0.894531 2 2 2 s 2 -0.894531 2 -2 s -0.894531 -2 -2 -2 z m -1 4.9375 s -1 0 -1 1 v 3 c 0 2 2 2 2 2 h 2 v -0.0625 h 0.371094 l 2.710937 4.515625 c 0.28125 0.472656 0.894531 0.625 1.367188 0.34375 c 0.476562 -0.285156 0.628906 -0.898437 0.34375 -1.375 l -3.289063 -5.484375 h -1.503906 v -0.9375 h 3 c 0.550781 0 1 -0.449219 1 -1 s -0.449219 -1 -1 -1 h -2.585938 l -0.707031 -0.707031 c -0.1875 -0.1875 -0.441406 -0.292969 -0.707031 -0.292969 z m -2 1.972656 c -1.613281 0.183594 -3.027344 1.21875 -3.65625 2.742188 c -0.699219 1.679687 -0.308594 3.621094 0.976562 4.90625 c 1.28125 1.28125 3.222657 1.671875 4.902344 0.972656 c 1.523438 -0.628906 2.558594 -2.042969 2.738282 -3.65625 h -2.015626 c -0.164062 0.804688 -0.710937 1.488281 -1.488281 1.8125 c -0.9375 0.386719 -2.007812 0.171875 -2.726562 -0.546875 c -0.714844 -0.714844 -0.929688 -1.785156 -0.542969 -2.722656 c 0.324219 -0.777344 1.007812 -1.324219 1.8125 -1.484375 z m 0 0" fill="#222222"/>
</svg>

<svg xmlns="http://www.w3.org/2000/svg" width="16" height="16"><path fill="#222" d="M8 .063c-1.105 0-2 .894-2 2s.895 2 2 2a2 2 0 1 0 0-4zM7 5S6 5 6 6v3c0 2 2 2 2 2h2v-.063h.371l2.711 4.516a1 1 0 1 0 1.71-1.031l-3.288-5.485H10V8h3c.55 0 1-.45 1-1s-.45-1-1-1h-2.586l-.707-.707A1 1 0 0 0 9 5zM5 6.973a4.5 4.5 0 0 0-3.656 2.742 4.5 4.5 0 0 0 5.879 5.879 4.488 4.488 0 0 0 2.738-3.657H7.945a2.5 2.5 0 0 1-1.488 1.813 2.499 2.499 0 0 1-2.727-.547 2.497 2.497 0 0 1-.542-2.723A2.486 2.486 0 0 1 5 8.996zm0 0"/></svg>
